X:1
T:Title
%%score { ( 1 3 ) | 2 }
L:1/8
M:4/4
K:Eb
V:1 treble nm="Grand Piano"
V:3 treble 
V:2 bass 
V:1
 z4 z2[Q:1/4=100] E>F | G>G G>G G2 G>[B,FA] | [B,EG]>[B,DF] [B,E]>[B,DF] [B,EG]2 [B,EG]>[B,FA] | %3
 [EGB]>[EAc] [EGB]>[B,EG] [G,E]2 [B,EG]2 | [B,DF]6 [B,EG]>[B,FA] | %5
 [GB]>[GB] [GB]>[GB] [GB]2 [B,FA]>[B,EG] | [EAc]>[EAc] [EAc]>[EAd] [EGe]2 [EBd]>[EAc] | %7
 [EGB]>[FA] [DF]>[FA] [EG]2 [DF]2 |[M:3/4] E6 |[M:1/4] B2 |[M:4/4] c>c c>c c2 (3edc | %11
 [GB]>[GB] [GB]>[GB] [GB]2 (3[GB][FA][EG] | [DF]>[DF] [DF]>[DF] [DF]2 (3[FA][EG][DF] | %13
 G>G G>[FA] [GB]3 [GB] | [Ac]>[Ac] c>c c2 (3edc | [GB]>[GB] [GB]>[GB] [GB]2 (3[GB]A[B,EG] | %16
 [DF]6 z2 |[M:3/4] [G,E]6 |] %18
V:2
 z4 z2 [E,G,]>[E,A,E] | [E,B,E]>[E,B,E] [E,B,E]>[E,B,E] [E,B,E]2 [E,B,E]>E, | %2
 E,>B,, G,,>B,, E,2 E,>E, | E,>E, E,>E, E,2 E,2 | B,,6 E,>E, | %5
 [E,E]>[E,E] [E,E]>[E,E] [E,E]2 E,>E, | A,,>A,, A,,>B,, C,2 A,,>A,, | %7
 B,,>[B,,B,] [B,,B,]>[B,,B,] [B,,B,]2 [B,,A,]2 |[M:3/4] [E,G,]6 |[M:1/4] [E,G,E]2 | %10
[M:4/4][K:treble] [A,E]>[A,E] [A,E]>[A,E] [A,E]2 (3cB[A,EA] | %11
 [E,E]>[E,E] [E,E]>[E,E] [E,E]2 (3:2:2[E,B,]2 [E,B,] | %12
 [B,,B,]>[B,,B,] [B,,B,]>[B,,B,] [B,,B,]2 (3:2:2[B,,B,]2 [B,,B,] | %13
 [E,B,E]>[E,B,E] [E,B,E]>[E,B,] [E,E]3 [E,E] | [A,E]>[G,E] [A,EA]>[A,EA] [A,EA]2 (3cB[A,EA] | %15
 [E,E]>[E,E] [E,E]>[E,E] [E,E]2 (3[E,B,]-[E,B,F]E, | B,,>B,, B,,>B,, B,,>B,, B,,>B,, | %17
[M:3/4] E,6 |] %18
V:3
 x8 | x8 | x8 | x8 | x8 | x8 | x8 | x8 |[M:3/4] x6 |[M:1/4] x2 |[M:4/4] x8 | x8 | x8 | x8 | x8 | %15
 x8 | B,>B, B,>B, B,>[B,FA] [B,EG]>[A,DF] |[M:3/4] x6 |] %18

